static/fa/svgs/solid/book-bible.svg

<svg xmlns="http://www.w3.org/2000/svg" viewBox="0 0 448 512"><!--! Font Awesome Free 6.1.1 by @fontawesome - https://fontawesome.com License - https://fontawesome.com/license/free (Icons: CC BY 4.0, Fonts: SIL OFL 1.1, Code: MIT License) Copyright 2022 Fonticons, Inc.--><path d="M448 336V48c0-26.51-21.5-48-48-48H96C42.98 0 0 42.98 0 96v320c0 53.02 42.98 96 96 96h320c17.67 0 32-14.33 32-31.1 0-11.72-6.607-21.52-16-27.1v-81.36c9.8-9.64 16-22.24 16-36.44zM144 144c0-8.875 7.125-15.1 16-15.1l48-.9V80c0-8.875 7.125-15.1 16-15.1h32c8.875 0 16 7.12 16 15.1v48h48c8.875 0 16 7.121 16 15.1v32c0 8.875-7.125 16-16 16l-48 .9v112c0 8.875-7.125 16-16 16h-32c-8.875 0-16-7.127-16-16V192h-48c-8.875 0-16-7.127-16-16v-32zm240 304H96c-17.67 0-32-14.33-32-32s14.33-32 32-32h288v64z"/></svg>

<svg xmlns="http://www.w3.org/2000/svg" viewBox="0 0 448 512"><!--! Font Awesome Free 6.1.1 by @fontawesome - https://fontawesome.com License - https://fontawesome.com/license/free (Icons: CC BY 4.0, Fonts: SIL OFL 1.1, Code: MIT License) Copyright 2022 Fonticons, Inc. --><path d="M448 336v-288C448 21.49 426.5 0 400 0H96C42.98 0 0 42.98 0 96v320c0 53.02 42.98 96 96 96h320c17.67 0 32-14.33 32-31.1c0-11.72-6.607-21.52-16-27.1v-81.36C441.8 362.8 448 350.2 448 336zM144 144c0-8.875 7.125-15.1 16-15.1L208 128V80c0-8.875 7.125-15.1 16-15.1l32 .0009c8.875 0 16 7.12 16 15.1V128L320 128c8.875 0 16 7.121 16 15.1v32c0 8.875-7.125 16-16 16L272 192v112c0 8.875-7.125 16-16 16l-32-.0002c-8.875 0-16-7.127-16-16V192L160 192c-8.875 0-16-7.127-16-16V144zM384 448H96c-17.67 0-32-14.33-32-32c0-17.67 14.33-32 32-32h288V448z"/></svg>
